X:209
T: Gasp\'e Reel
I: Gaspe Reel   R-30    D       reel    Set 3
C: French Canadian
%% Z: Transcribed to abc by Mary Lou Knack
Z: Lifted from Randy Miller's book instead
R: reel
M: C|
L:1/8
%% Q: 1/2=108
K: D
%% "D"f2ef e2dB| AFAF B2A2| "A7"g2fg f2ed| BABc (3BcBA2|
%% "D"f2ef e2dB| AFAF B2A2| "A7"g2fg f2ed| B2c2 "D"d4 :|
%% |:\
%% "A7"e2f2 g2fe| "D"f2g2 a4| "A7"e2f2 g2e2| "Em"BABc "A7"(3BcBA2|
%% "A7"e2f2 g2fe| "D"f2g2 a4| "A7"e2f2 gfed| B2c2 "D"d4 :|
%% text 9/1/98.  Set 3
|: "D"f2 ef "A"e2 d2 | "D"FAFA "G"B2 A2 | "A7"g2 fg f2 e2 | "G"BABc "A"B2 A2 |
| "D"f2 ef e2 d2 | "D"FAFA "G"B2 A2 | "A7"g2 fg f2 e2 | "A7"B2 c2 "D"d4 :|
|: "A7"e2 f2 g3 e | "D"f2 g2 a4 | "A7"e2 f2 g2 e2 | "G"BABc "D"B2 A2 |
| "A7"e2 f2 g3 e | "D"f2 g2 a4 | "A7"e2 f2 gf e2 | "A7"B2 c2 "D"d4 :|
%%newpage
%%text
%%text
%%text
%%text
